X:0600
T:The Irish Lassie.
M:6/8
L:1/8
Q:3/8=90
I: ||
Z:Jack Campin * www.campin.me.uk * 2009
K:G
 G/A/|B2A              B2  g|   dBG  A2    B| E2D   EFG  | AFD   D2
 G/A/|B2A              B2  d|  ^ceg  f2    e|Tf>ed  edT^c| d3    dd=c|
      B>cB             c<ATf|   g3   d2    c| B<GB Tc2 d |(ede) (gfe)|
      d2 (3(e/f/g/) {g}f2  e|{e}d2c (B/c/d)D| EcB   A<DF | G3    G2 |]
% A SELECTION of Scotch, English, Irish and Foreign
% AIRS adapted for the FIFE, VIOLIN, or German FLUTE
% Humbly Dedicated to the Volunteer and Defensive BANDS
% of GREAT BRITAIN and IRELAND.
% Printed and Sold by J. McFADYEN, GLASGOW
% Vol. IV
% [in fact by James Aird]% Transcriptions by Jack Campin, 2003.
% Edition 1.0 - corrections welcome.
<end>
<start>
